ui/StatusQ/src/assets/img/icons/lock.svg

<svg fill="none" height="12" viewBox="0 0 10 12" width="10" xmlns="http://www.w3.org/2000/svg"><path clip-rule="evenodd" d="m2 5.5v-1.74359c0-1.78315 1.32593-3.25641 3-3.25641s3 1.47326 3 3.25641v1.74359h.5c.82843 0 1.5.67157 1.5 1.5v3c0 .8284-.67157 1.5-1.5 1.5h-7c-.828427 0-1.5-.6716-1.5-1.5v-3c0-.82843.671573-1.5 1.5-1.5zm1.38462 0h3.23076v-1.74359c0-1.04908-.74044-1.87179-1.61538-1.87179s-1.61538.82271-1.61538 1.87179z" fill="#4360df" fill-rule="evenodd"/></svg>

<svg width="10" height="12" viewBox="0 0 10 12" fill="none" xmlns="http://www.w3.org/2000/svg">
<path fill-rule="evenodd" clip-rule="evenodd" d="M2 5.5V3.75641C2 1.97326 3.32593 0.5 5 0.5C6.67407 0.5 8 1.97326 8 3.75641V5.5H8.5C9.32843 5.5 10 6.17157 10 7V10C10 10.8284 9.32843 11.5 8.5 11.5H1.5C0.671573 11.5 0 10.8284 0 10V7C0 6.17157 0.671573 5.5 1.5 5.5H2ZM3.38462 5.5H6.61538V3.75641C6.61538 2.70733 5.87494 1.88462 5 1.88462C4.12506 1.88462 3.38462 2.70733 3.38462 3.75641V5.5Z" fill="#4360DF"/>
</svg>
